; generated by Slic3r 1.1.7 on 2014-11-27 at 15:20:00

; perimeters extrusion width = 2.00mm
; infill extrusion width = 3.36mm
; solid infill extrusion width = 3.36mm
; top infill extrusion width = 3.36mm

G21 ; set units to millimeters
G28 ; home all axes
M117 Printing...
G90 ; use absolute coordinates
G92 E0 ; reset extrusion distance
M82 ; use absolute distances for extrusion
M204 S500 ; adjust acceleration
G1 F1800.000 E-1.00000 ; retract
G1 Z3.000 F3600.000 ; move to next layer (0) and lift
G92 E0 ; reset extrusion distance
G1 X70.098 Y82.852 F3600.000 ; move to first skirt point
G1 Z2.000 F3600.000 ; restore layer Z
G1 E1.00000 F1800.000 ; compensate retraction
G1 X72.528 Y80.941 E1.01285 F900.000 ; skirt
G1 X75.366 Y79.714 E1.02571 ; skirt
G1 X78.429 Y79.252 E1.03859 ; skirt
G1 X100.994 Y78.801 E1.13242 ; skirt
G1 X134.323 Y78.804 E1.27098 ; skirt
G1 X149.055 Y79.285 E1.33226 F900.000 ; skirt
G1 X150.210 Y79.340 E1.33707 ; skirt
G1 X151.750 Y79.478 E1.34350 ; skirt
G1 X152.720 Y79.607 E1.34757 ; skirt
G1 X168.683 Y82.084 E1.41473 ; skirt
G1 X171.652 Y82.948 E1.42759 ; skirt
G1 X175.108 Y85.242 E1.44483 ; skirt
G1 X179.595 Y89.505 E1.47056 ; skirt
G1 X181.544 Y91.906 E1.48342 ; skirt
G1 X182.814 Y94.725 E1.49627 ; skirt
G1 X183.330 Y98.205 E1.51090 ; skirt
G1 X183.330 Y101.122 E1.52303 ; skirt
G1 X182.932 Y104.188 E1.53588 ; skirt
G1 X181.763 Y107.051 E1.54874 ; skirt
G1 X179.595 Y109.822 E1.56337 ; skirt
G1 X175.108 Y114.085 E1.58910 ; skirt
G1 X172.611 Y115.908 E1.60195 ; skirt
G1 X169.083 Y117.174 E1.61753 ; skirt
G1 X152.492 Y120.323 E1.68775 ; skirt
G1 X151.004 Y120.535 E1.69400 ; skirt
G1 X149.421 Y120.676 E1.70060 ; skirt
G1 X148.408 Y120.727 E1.70482 ; skirt
G1 X134.360 Y121.199 E1.76326 ; skirt
G1 X100.802 Y121.196 E1.90277 ; skirt
G1 X78.429 Y120.748 E1.99581 ; skirt
G1 X75.372 Y120.288 E2.00866 ; skirt
G1 X72.533 Y119.062 E2.02152 ; skirt
G1 X70.102 Y117.152 E2.03437 ; skirt
G1 X68.240 Y114.684 E2.04723 ; skirt
G1 X67.070 Y111.822 E2.06008 ; skirt
G1 X66.670 Y108.750 E2.07296 ; skirt
G1 X66.670 Y91.250 E2.14572 ; skirt
G1 X67.068 Y88.184 E2.15857 ; skirt
G1 X68.237 Y85.321 E2.17143 ; skirt
G1 X69.917 Y83.092 E2.18303 ; skirt
G1 X71.673 Y84.200 F3600.000 ; move to first skirt point
G1 X72.064 Y83.742 E2.18554 F900.000 ; skirt
G1 X74.424 Y82.196 E2.19727 ; skirt
G1 X78.469 Y81.252 E2.21453 ; skirt
G1 X100.994 Y80.801 E2.30820 ; skirt
G1 X134.282 Y80.803 E2.44659 ; skirt
G1 X148.977 Y81.283 E2.50772 F900.000 ; skirt
G1 X150.068 Y81.335 E2.51227 ; skirt
G1 X151.514 Y81.464 E2.51830 ; skirt
G1 X152.413 Y81.583 E2.52207 ; skirt
G1 X168.377 Y84.061 E2.58923 ; skirt
G1 X171.076 Y84.882 E2.60096 ; skirt
G1 X173.730 Y86.692 E2.61432 ; skirt
G1 X178.218 Y90.955 E2.64005 ; skirt
G1 X179.969 Y93.167 E2.65178 ; skirt
G1 X181.032 Y95.781 E2.66351 ; skirt
G1 X181.330 Y98.205 E2.67367 ; skirt
G1 X181.330 Y101.122 E2.68579 ; skirt
G1 X180.932 Y103.915 E2.69752 ; skirt
G1 X179.770 Y106.486 E2.70925 ; skirt
G1 X178.218 Y108.372 E2.71941 ; skirt
G1 X173.730 Y112.635 E2.74514 ; skirt
G1 X171.431 Y114.270 E2.75687 ; skirt
G1 X168.710 Y115.209 E2.76884 ; skirt
G1 X152.162 Y118.351 E2.83887 ; skirt
G1 X150.787 Y118.547 E2.84464 ; skirt
G1 X149.301 Y118.680 E2.85085 ; skirt
G1 X148.340 Y118.728 E2.85485 ; skirt
G1 X134.360 Y119.199 E2.91300 ; skirt
G1 X100.842 Y119.197 E3.05235 ; skirt
G1 X78.469 Y118.748 E3.14539 ; skirt
G1 X75.685 Y118.294 E3.15711 ; skirt
G1 X73.138 Y117.080 E3.16884 ; skirt
G1 X71.031 Y115.204 E3.18057 ; skirt
G1 X69.533 Y112.813 E3.19230 ; skirt
G1 X68.670 Y108.750 E3.20957 ; skirt
G1 X68.670 Y91.250 E3.28233 ; skirt
G1 X69.068 Y88.457 E3.29406 ; skirt
G1 X70.230 Y85.886 E3.30579 ; skirt
G1 X71.478 Y84.428 E3.31377 ; skirt
G1 X73.102 Y85.646 F3600.000 ; move to first skirt point
G1 X74.014 Y84.744 E3.31910 F900.000 ; skirt
G1 X76.271 Y83.618 E3.32959 ; skirt
G1 X78.509 Y83.252 E3.33902 ; skirt
G1 X100.994 Y82.801 E3.43252 ; skirt
G1 X134.241 Y82.803 E3.57074 ; skirt
G1 X148.900 Y83.282 E3.63172 F900.000 ; skirt
G1 X149.927 Y83.330 E3.63599 ; skirt
G1 X150.797 Y83.400 E3.63962 ; skirt
G1 X152.106 Y83.559 E3.64511 ; skirt
G1 X168.070 Y86.037 E3.71227 ; skirt
G1 X170.470 Y86.812 E3.72275 ; skirt
G1 X172.353 Y88.142 E3.73234 ; skirt
G1 X176.840 Y92.405 E3.75807 ; skirt
G1 X178.372 Y94.409 E3.76856 ; skirt
G1 X179.204 Y96.789 E3.77904 ; skirt
G1 X179.330 Y98.205 E3.78495 ; skirt
G1 X179.330 Y101.122 E3.79708 ; skirt
G1 X178.933 Y103.612 E3.80756 ; skirt
G1 X177.780 Y105.855 E3.81805 ; skirt
G1 X176.840 Y106.922 E3.82396 ; skirt
G1 X172.353 Y111.185 E3.84969 ; skirt
G1 X170.274 Y112.612 E3.86017 ; skirt
G1 X168.336 Y113.244 E3.86865 ; skirt
G1 X151.832 Y116.378 E3.93849 ; skirt
G1 X150.998 Y116.506 E3.94200 ; skirt
G1 X150.126 Y116.606 E3.94565 ; skirt
G1 X148.699 Y116.711 E3.95160 ; skirt
G1 X134.360 Y117.199 E4.01125 ; skirt
G1 X100.882 Y117.197 E4.15043 ; skirt
G1 X78.509 Y116.748 E4.24346 ; skirt
G1 X76.028 Y116.301 E4.25395 ; skirt
G1 X73.808 Y115.103 E4.26443 ; skirt
G1 X72.072 Y113.274 E4.27492 ; skirt
G1 X70.991 Y110.995 E4.28540 ; skirt
G1 X70.670 Y108.750 E4.29483 ; skirt
G1 X70.670 Y91.250 E4.36759 ; skirt
G1 X71.067 Y88.760 E4.37808 ; skirt
G1 X72.220 Y86.517 E4.38856 ; skirt
G1 X72.888 Y85.857 E4.39246 ; skirt
G1 F1800.000 E3.39246 ; retract
G1 Z3.000 F3600.000 ; lift plate during travel
G92 E0 ; reset extrusion distance
G1 X106.208 Y103.514 F3600.000 ; move to first perimeter point
G1 Z2.000 F3600.000 ; restore layer Z
G1 E1.00000 F1800.000 ; compensate retraction
G1 X106.221 Y104.626 E1.00463 F600.000 ; perimeter
G1 X106.197 Y105.735 E1.00924 ; perimeter
G1 X105.707 Y106.107 E1.01179 ; perimeter
G1 X105.286 Y106.383 E1.01389 ; perimeter
G1 X104.820 Y106.654 E1.01613 ; perimeter
G1 X104.335 Y106.895 E1.01838 ; perimeter
G1 X103.602 Y107.188 E1.02166 ; perimeter
G1 X102.893 Y107.398 E1.02474 ; perimeter
G1 X102.130 Y107.548 E1.02797 ; perimeter
G1 X101.400 Y107.616 E1.03102 ; perimeter
G1 X100.967 Y107.627 E1.03282 ; perimeter
G1 X100.489 Y107.611 E1.03481 ; perimeter
G1 X99.753 Y107.535 E1.03788 ; perimeter
G1 X99.023 Y107.384 E1.04098 ; perimeter
G1 X98.307 Y107.159 E1.04410 ; perimeter
G1 X97.751 Y106.924 E1.04661 ; perimeter
G1 X97.157 Y106.612 E1.04940 ; perimeter
G1 X96.629 Y106.273 E1.05201 ; perimeter
G1 X96.119 Y105.884 E1.05468 ; perimeter
G1 X95.610 Y105.420 E1.05754 ; perimeter
G1 X95.176 Y104.947 E1.06021 ; perimeter
G1 X94.810 Y104.472 E1.06270 ; perimeter
G1 X94.435 Y103.880 E1.06562 ; perimeter
G1 X94.136 Y103.289 E1.06837 ; perimeter
G1 X93.924 Y102.763 E1.07073 ; perimeter
G1 X93.751 Y102.202 E1.07317 ; perimeter
G1 X93.600 Y101.522 E1.07606 ; perimeter
G1 X93.511 Y100.818 E1.07902 ; perimeter
G1 X93.478 Y100.051 E1.08221 ; perimeter
G1 X93.499 Y99.363 E1.08507 ; perimeter
G1 X93.560 Y98.745 E1.08765 ; perimeter
G1 X93.632 Y98.304 E1.08951 ; perimeter
G1 X93.775 Y97.690 E1.09212 ; perimeter
G1 X93.947 Y97.137 E1.09454 ; perimeter
G1 X94.127 Y96.682 E1.09657 ; perimeter
G1 X94.366 Y96.182 E1.09887 ; perimeter
G1 X94.644 Y95.701 E1.10118 ; perimeter
G1 X94.955 Y95.252 E1.10345 ; perimeter
G1 X95.287 Y94.841 E1.10565 ; perimeter
G1 X95.645 Y94.459 E1.10783 ; perimeter
G1 X96.087 Y94.057 E1.11031 ; perimeter
G1 X96.480 Y93.751 E1.11238 ; perimeter
G1 X96.891 Y93.475 E1.11444 ; perimeter
G1 X97.359 Y93.209 E1.11668 ; perimeter
G1 X97.886 Y92.961 E1.11910 ; perimeter
G1 X98.372 Y92.778 E1.12126 ; perimeter
G1 X98.874 Y92.630 E1.12344 ; perimeter
G1 X99.352 Y92.522 E1.12547 ; perimeter
G1 X99.865 Y92.441 E1.12763 ; perimeter
G1 X100.472 Y92.387 E1.13017 ; perimeter
G1 X101.028 Y92.372 E1.13248 ; perimeter
G1 X101.698 Y92.399 E1.13527 ; perimeter
G1 X102.224 Y92.453 E1.13746 ; perimeter
G1 X102.856 Y92.566 E1.14013 ; perimeter
G1 X103.430 Y92.715 E1.14260 ; perimeter
G1 X103.867 Y92.864 E1.14452 ; perimeter
G1 X104.296 Y93.042 E1.14645 ; perimeter
G1 X104.735 Y93.265 E1.14849 ; perimeter
G1 X105.137 Y93.504 E1.15044 ; perimeter
G1 X105.851 Y94.005 E1.15407 ; perimeter
G1 X107.385 Y95.249 E1.16228 ; perimeter
G1 F1800.000 E0.16228 ; retract
G1 Z3.000 F3600.000 ; lift plate during travel
G92 E0 ; reset extrusion distance
G1 X80.579 Y100.337 F3600.000 ; move to first perimeter point
G1 Z2.000 F3600.000 ; restore layer Z
G1 E1.00000 F1800.000 ; compensate retraction
G1 X83.387 Y100.340 E1.01167 F600.000 ; perimeter
G1 X84.978 Y100.416 E1.01830 ; perimeter
G1 X85.227 Y100.865 E1.02043 ; perimeter
G1 X85.510 Y101.286 E1.02254 ; perimeter
G1 X85.771 Y101.601 E1.02424 ; perimeter
G1 X86.255 Y102.108 E1.02716 ; perimeter
G1 X86.519 Y102.464 E1.02900 ; perimeter
G1 X86.762 Y102.925 E1.03117 ; perimeter
G1 X86.905 Y103.411 E1.03327 ; perimeter
G1 X86.958 Y103.783 E1.03483 ; perimeter
G1 X86.957 Y104.201 E1.03657 ; perimeter
G1 X86.920 Y104.547 E1.03802 ; perimeter
G1 X86.826 Y104.931 E1.03966 ; perimeter
G1 X86.713 Y105.233 E1.04100 ; perimeter
G1 X86.539 Y105.550 E1.04250 ; perimeter
G1 X86.308 Y105.869 E1.04414 ; perimeter
G1 X86.080 Y106.112 E1.04553 ; perimeter
G1 X85.665 Y106.446 E1.04774 ; perimeter
G1 X85.160 Y106.725 E1.05014 ; perimeter
G1 X84.872 Y106.843 E1.05143 ; perimeter
G1 X84.567 Y106.941 E1.05277 ; perimeter
G1 X83.950 Y107.070 E1.05539 ; perimeter
G1 X83.383 Y107.136 E1.05776 ; perimeter
G1 X82.978 Y107.158 E1.05945 ; perimeter
G1 X81.850 Y107.179 E1.06414 ; perimeter
G1 X81.548 Y107.168 E1.06539 ; perimeter
G1 X80.510 Y106.910 E1.06984 ; perimeter
G1 X80.240 Y105.609 E1.07537 ; perimeter
G1 X80.240 Y101.795 E1.09122 ; perimeter
G1 X80.579 Y100.337 E1.09745 ; perimeter
G1 X81.483 Y104.233 F3600.000 ; move to first perimeter point
G1 X80.240 Y98.878 E1.12030 F600.000 ; perimeter
G1 X80.240 Y94.391 E1.13896 ; perimeter
G1 X80.510 Y93.090 E1.14448 ; perimeter
G1 X81.811 Y92.821 E1.15001 ; perimeter
G1 X83.224 Y92.823 E1.15588 ; perimeter
G1 X84.116 Y92.855 E1.15959 ; perimeter
G1 X84.893 Y92.938 E1.16284 ; perimeter
G1 X85.607 Y93.089 E1.16587 ; perimeter
G1 X86.044 Y93.238 E1.16780 ; perimeter
G1 X86.358 Y93.387 E1.16924 ; perimeter
G1 X86.679 Y93.588 E1.17081 ; perimeter
G1 X87.017 Y93.864 E1.17263 ; perimeter
G1 X87.298 Y94.157 E1.17432 ; perimeter
G1 X87.545 Y94.488 E1.17603 ; perimeter
G1 X87.756 Y94.862 E1.17782 ; perimeter
G1 X87.906 Y95.217 E1.17942 ; perimeter
G1 X88.015 Y95.613 E1.18113 ; perimeter
G1 X88.072 Y96.000 E1.18275 ; perimeter
G1 X88.092 Y96.450 E1.18463 ; perimeter
G1 X88.066 Y96.858 E1.18633 ; perimeter
G1 X88.013 Y97.199 E1.18776 ; perimeter
G1 X87.914 Y97.565 E1.18934 ; perimeter
G1 X87.759 Y97.949 E1.19106 ; perimeter
G1 X87.566 Y98.293 E1.19270 ; perimeter
G1 X87.231 Y98.715 E1.19494 ; perimeter
G1 X86.850 Y99.069 E1.19710 ; perimeter
G1 X86.465 Y99.348 E1.19908 ; perimeter
G1 X85.708 Y99.800 E1.20274 ; perimeter
G1 X85.228 Y100.177 E1.20528 ; perimeter
G1 X83.536 Y101.859 E1.21520 ; perimeter
G1 F1800.000 E0.21520 ; retract
G1 Z3.000 F3600.000 ; lift plate during travel
G92 E0 ; reset extrusion distance
G1 X116.427 Y104.164 F3600.000 ; move to first perimeter point
G1 Z2.000 F3600.000 ; restore layer Z
G1 E1.00000 F1800.000 ; compensate retraction
G1 X113.955 Y107.750 E1.01811 F600.000 ; perimeter
G1 X112.651 Y107.750 E1.02353 ; perimeter
G1 X112.651 Y102.988 E1.04333 ; perimeter
G1 X116.141 Y104.075 E1.05852 ; perimeter
G1 X114.716 Y105.199 F3600.000 ; move inwards before travel
G1 F1800.000 E0.05852 ; retract
G1 Z3.000 F3600.000 ; lift plate during travel
G92 E0 ; reset extrusion distance
G1 X120.786 Y95.802 F3600.000 ; move to first perimeter point
G1 Z2.000 F3600.000 ; restore layer Z
G1 E1.00000 F1800.000 ; compensate retraction
G1 X123.236 Y92.250 E1.01794 F600.000 ; perimeter
G1 X124.561 Y92.250 E1.02345 ; perimeter
G1 X124.561 Y96.977 E1.04310 ; perimeter
G1 X121.073 Y95.891 E1.05829 ; perimeter
G1 X122.497 Y94.766 F3600.000 ; move inwards before travel
G1 X120.771 Y96.844 F3600.000 ; move to first perimeter point
G1 X116.442 Y103.121 E1.08999 F600.000 ; perimeter
G1 X113.221 Y102.118 F3600.000 ; move to first perimeter point
G1 X113.221 Y91.250 E1.13517 F600.000 ; perimeter
G1 F1800.000 E0.13517 ; retract
G1 Z3.000 F3600.000 ; lift plate during travel
G92 E0 ; reset extrusion distance
G1 X134.003 Y99.223 F3600.000 ; move to first perimeter point
G1 Z2.000 F3600.000 ; restore layer Z
G1 E1.00000 F1800.000 ; compensate retraction
G1 X135.178 Y100.937 E1.00864 F600.000 ; perimeter
G1 X135.415 Y101.254 E1.01029 ; perimeter
G1 X135.633 Y101.509 E1.01168 ; perimeter
G1 X135.882 Y101.757 E1.01314 ; perimeter
G1 X136.617 Y102.331 E1.01702 ; perimeter
G1 X136.939 Y102.641 E1.01887 ; perimeter
G1 X137.245 Y103.040 E1.02097 ; perimeter
G1 X137.484 Y103.504 E1.02314 ; perimeter
G1 X137.605 Y103.894 E1.02483 ; perimeter
G1 X137.662 Y104.258 E1.02637 ; perimeter
G1 X137.669 Y104.659 E1.02803 ; perimeter
G1 X137.615 Y105.138 E1.03004 ; perimeter
G1 X137.499 Y105.558 E1.03185 ; perimeter
G1 X137.344 Y105.904 E1.03343 ; perimeter
G1 X137.136 Y106.240 E1.03507 ; perimeter
G1 X136.886 Y106.551 E1.03673 ; perimeter
G1 X136.527 Y106.892 E1.03879 ; perimeter
G1 X136.194 Y107.134 E1.04050 ; perimeter
G1 X135.760 Y107.359 E1.04253 ; perimeter
G1 X135.305 Y107.513 E1.04453 ; perimeter
G1 X134.856 Y107.598 E1.04643 ; perimeter
G1 X134.361 Y107.628 E1.04849 ; perimeter
G1 X133.830 Y107.596 E1.05070 ; perimeter
G1 X133.344 Y107.501 E1.05276 ; perimeter
G1 X133.089 Y107.424 E1.05387 ; perimeter
G1 X132.747 Y107.283 E1.05541 ; perimeter
G1 X132.462 Y107.132 E1.05675 ; perimeter
G1 X132.173 Y106.940 E1.05819 ; perimeter
G1 X131.919 Y106.737 E1.05954 ; perimeter
G1 X131.656 Y106.484 E1.06106 ; perimeter
G1 X131.325 Y106.075 E1.06324 ; perimeter
G1 X130.873 Y105.809 E1.06543 ; perimeter
G1 X130.332 Y105.442 E1.06814 ; perimeter
G1 X129.835 Y105.063 E1.07074 ; perimeter
G1 X129.150 Y104.496 E1.07444 ; perimeter
G1 F1800.000 E0.07444 ; retract
G1 Z3.000 F3600.000 ; lift plate during travel
G92 E0 ; reset extrusion distance
G1 X144.901 Y93.090 F3600.000 ; move to first perimeter point
G1 Z2.000 F3600.000 ; restore layer Z
G1 E1.00000 F1800.000 ; compensate retraction
G1 X146.202 Y92.821 E1.00552 F600.000 ; perimeter
G1 X148.024 Y92.826 E1.01310 ; perimeter
G1 X148.960 Y92.857 E1.01699 ; perimeter
G1 X149.860 Y92.927 E1.02074 ; perimeter
G1 X150.619 Y93.032 E1.02393 ; perimeter
G1 X151.261 Y93.175 E1.02667 ; perimeter
G1 X151.781 Y93.355 E1.02896 ; perimeter
G1 X152.233 Y93.571 E1.03104 ; perimeter
G1 X152.680 Y93.849 E1.03322 ; perimeter
G1 X153.096 Y94.166 E1.03540 ; perimeter
G1 X153.480 Y94.520 E1.03757 ; perimeter
G1 X153.884 Y94.975 E1.04010 ; perimeter
G1 X154.197 Y95.404 E1.04231 ; perimeter
G1 X154.471 Y95.856 E1.04451 ; perimeter
G1 X154.803 Y96.545 E1.04768 ; perimeter
G1 X155.035 Y97.188 E1.05053 ; perimeter
G1 X155.216 Y97.887 E1.05353 ; perimeter
G1 X155.335 Y98.626 E1.05664 ; perimeter
G1 X155.396 Y99.546 E1.06047 ; perimeter
G1 X155.387 Y100.340 E1.06378 ; perimeter
G1 X155.328 Y101.040 E1.06670 ; perimeter
G1 X155.191 Y101.847 E1.07010 ; perimeter
G1 X155.014 Y102.518 E1.07298 ; perimeter
G1 X154.762 Y103.205 E1.07603 ; perimeter
G1 X154.454 Y103.833 E1.07894 ; perimeter
G1 X154.025 Y104.514 E1.08228 ; perimeter
G1 X153.583 Y105.070 E1.08523 ; perimeter
G1 X153.128 Y105.533 E1.08793 ; perimeter
G1 X152.648 Y105.923 E1.09051 ; perimeter
G1 X152.139 Y106.243 E1.09301 ; perimeter
G1 X151.520 Y106.537 E1.09585 ; perimeter
G1 X151.037 Y106.708 E1.09798 ; perimeter
G1 X150.676 Y106.810 E1.09954 ; perimeter
G1 X149.775 Y106.997 E1.10337 ; perimeter
G1 X148.886 Y107.108 E1.10710 ; perimeter
G1 X147.944 Y107.167 E1.11102 ; perimeter
G1 X146.202 Y107.179 E1.11826 ; perimeter
G1 X144.901 Y106.910 E1.12378 ; perimeter
G1 X144.631 Y105.609 E1.12931 ; perimeter
G1 X144.631 Y94.391 E1.17595 ; perimeter
G1 X144.901 Y93.090 E1.18147 ; perimeter
G1 F1800.000 E0.18147 ; retract
G1 Z3.000 F3600.000 ; lift plate during travel
G92 E0 ; reset extrusion distance
G1 X129.550 Y96.635 F3600.000 ; move to first perimeter point
G1 Z2.000 F3600.000 ; restore layer Z
G1 E1.00000 F1800.000 ; compensate retraction
G1 X130.313 Y94.697 E1.00866 F600.000 ; perimeter
