; generated by Slic3r 1.1.7 on 2014-11-27 at 14:33:18

; perimeters extrusion width = 2.00mm
; infill extrusion width = 3.36mm
; solid infill extrusion width = 3.36mm
; top infill extrusion width = 3.36mm

G21 ; set units to millimeters
G28 ; home all axes
M117 Printing...
G90 ; use absolute coordinates
G92 E0 ; reset extrusion distance
M82 ; use absolute distances for extrusion
M204 S500 ; adjust acceleration
G1 F1800.000 E-1.00000 ; retract
G1 Z3.000 F3600.000 ; move to next layer (0) and lift
G92 E0 ; reset extrusion distance
G1 X95.754 Y70.248 F3600.000 ; move to first skirt point
G1 Z2.000 F3600.000 ; restore layer Z
G1 E1.00000 F1800.000 ; compensate retraction
G1 X97.601 Y67.768 E1.01285 F900.000 ; skirt
G1 X100.020 Y65.843 E1.02571 ; skirt
G1 X104.213 Y64.286 E1.04431 ; skirt
G1 X108.665 Y63.530 E1.06308 ; skirt
G1 X110.672 Y63.361 E1.07145 ; skirt
G1 X139.328 Y63.361 E1.19059 ; skirt
G1 X141.335 Y63.530 E1.19896 ; skirt
G1 X145.787 Y64.286 E1.21774 F900.000 ; skirt
G1 X148.743 Y65.191 E1.23059 ; skirt
G1 X151.370 Y66.822 E1.24345 ; skirt
G1 X154.246 Y70.248 E1.26204 ; skirt
G1 X157.206 Y75.684 E1.28778 ; skirt
G1 X167.431 Y100.024 E1.39754 ; skirt
G1 X168.251 Y103.005 E1.41039 ; skirt
G1 X168.283 Y106.097 E1.42325 ; skirt
G1 X167.979 Y107.699 E1.43003 ; skirt
G1 X165.004 Y119.110 E1.47905 ; skirt
G1 X163.845 Y121.977 E1.49191 ; skirt
G1 X161.992 Y124.452 E1.50476 ; skirt
G1 X160.153 Y125.998 E1.51475 ; skirt
G1 X146.391 Y135.380 E1.58400 ; skirt
G1 X144.454 Y136.454 E1.59321 ; skirt
G1 X143.109 Y137.044 E1.59931 ; skirt
G1 X140.142 Y137.912 E1.61217 ; skirt
G1 X138.286 Y138.056 E1.61991 ; skirt
G1 X111.714 Y138.056 E1.73038 ; skirt
G1 X108.648 Y137.658 E1.74323 ; skirt
G1 X106.891 Y137.044 E1.75097 ; skirt
G1 X105.546 Y136.454 E1.75708 ; skirt
G1 X103.609 Y135.380 E1.76628 ; skirt
G1 X89.847 Y125.998 E1.83553 ; skirt
G1 X87.538 Y123.941 E1.84839 ; skirt
G1 X85.832 Y121.363 E1.86124 ; skirt
G1 X84.996 Y119.110 E1.87123 ; skirt
G1 X82.021 Y107.699 E1.92026 ; skirt
G1 X81.632 Y104.632 E1.93311 ; skirt
G1 X82.041 Y101.567 E1.94597 ; skirt
G1 X82.569 Y100.024 E1.95275 ; skirt
G1 X93.390 Y74.463 E2.06815 ; skirt
G1 X95.607 Y70.510 E2.08699 ; skirt
G1 X97.498 Y71.226 F3600.000 ; move to first skirt point
G1 X99.211 Y68.984 E2.09872 F900.000 ; skirt
G1 X101.483 Y67.310 E2.11045 ; skirt
G1 X104.548 Y66.258 E2.12393 ; skirt
G1 X108.999 Y65.502 E2.14270 ; skirt
G1 X110.672 Y65.361 E2.14968 ; skirt
G1 X139.328 Y65.361 E2.26882 ; skirt
G1 X141.001 Y65.502 E2.27579 ; skirt
G1 X145.452 Y66.258 E2.29457 F900.000 ; skirt
G1 X148.139 Y67.117 E2.30630 ; skirt
G1 X150.479 Y68.693 E2.31803 ; skirt
G1 X152.502 Y71.226 E2.33150 ; skirt
G1 X155.362 Y76.459 E2.35630 ; skirt
G1 X165.587 Y100.799 E2.46606 ; skirt
G1 X166.302 Y103.528 E2.47779 ; skirt
G1 X166.044 Y107.195 E2.49307 ; skirt
G1 X163.069 Y118.606 E2.54209 ; skirt
G1 X161.979 Y121.208 E2.55382 ; skirt
G1 X160.206 Y123.402 E2.56555 ; skirt
G1 X159.026 Y124.345 E2.57183 ; skirt
G1 X145.264 Y133.728 E2.64108 ; skirt
G1 X143.650 Y134.622 E2.64875 ; skirt
G1 X142.305 Y135.213 E2.65486 ; skirt
G1 X138.286 Y136.056 E2.67193 ; skirt
G1 X111.714 Y136.056 E2.78241 ; skirt
G1 X107.695 Y135.213 E2.79948 ; skirt
G1 X106.350 Y134.622 E2.80559 ; skirt
G1 X104.736 Y133.728 E2.81326 ; skirt
G1 X90.974 Y124.345 E2.88251 ; skirt
G1 X88.891 Y122.443 E2.89424 ; skirt
G1 X87.421 Y120.034 E2.90597 ; skirt
G1 X86.931 Y118.606 E2.91225 ; skirt
G1 X83.956 Y107.195 E2.96127 ; skirt
G1 X83.636 Y104.392 E2.97300 ; skirt
G1 X84.413 Y100.799 E2.98828 ; skirt
G1 X95.135 Y75.441 E3.10275 ; skirt
G1 X97.351 Y71.488 E3.12159 ; skirt
G1 X99.243 Y72.204 F3600.000 ; move to first skirt point
G1 X100.807 Y70.226 E3.13208 F900.000 ; skirt
G1 X102.910 Y68.834 E3.14256 ; skirt
G1 X104.882 Y68.229 E3.15114 ; skirt
G1 X109.334 Y67.474 E3.16991 ; skirt
G1 X110.672 Y67.361 E3.17549 ; skirt
G1 X139.328 Y67.361 E3.29463 ; skirt
G1 X140.666 Y67.474 E3.30021 ; skirt
G1 X145.118 Y68.229 E3.31898 F900.000 ; skirt
G1 X147.506 Y69.038 E3.32947 ; skirt
G1 X149.525 Y70.550 E3.33995 ; skirt
G1 X150.757 Y72.204 E3.34853 ; skirt
G1 X153.518 Y77.234 E3.37238 ; skirt
G1 X163.743 Y101.573 E3.48214 ; skirt
G1 X164.341 Y104.023 E3.49263 ; skirt
G1 X164.109 Y106.690 E3.50376 ; skirt
G1 X161.134 Y118.101 E3.55278 ; skirt
G1 X160.121 Y120.411 E3.56327 ; skirt
G1 X157.899 Y122.693 E3.57651 ; skirt
G1 X144.138 Y132.076 E3.64576 ; skirt
G1 X142.846 Y132.791 E3.65190 ; skirt
G1 X141.502 Y133.381 E3.65800 ; skirt
G1 X138.286 Y134.056 E3.67166 ; skirt
G1 X111.714 Y134.056 E3.78214 ; skirt
G1 X108.498 Y133.381 E3.79579 ; skirt
G1 X107.154 Y132.791 E3.80190 ; skirt
G1 X105.862 Y132.076 E3.80804 ; skirt
G1 X92.101 Y122.693 E3.87729 ; skirt
G1 X90.267 Y120.961 E3.88777 ; skirt
G1 X88.866 Y118.101 E3.90101 ; skirt
G1 X85.891 Y106.690 E3.95004 ; skirt
G1 X85.648 Y104.180 E3.96052 ; skirt
G1 X86.257 Y101.573 E3.97165 ; skirt
G1 X96.879 Y76.420 E4.08517 ; skirt
G1 X99.096 Y72.466 E4.10402 ; skirt
G1 F1800.000 E3.10402 ; retract
G1 Z3.000 F3600.000 ; lift plate during travel
G92 E0 ; reset extrusion distance
G1 X126.431 Y91.175 F3600.000 ; move to first fill point
G1 Z2.000 F3600.000 ; restore layer Z
G1 E1.00000 F1800.000 ; compensate retraction
G1 X126.485 Y91.229 E1.00033 F900.000 ; fill
G1 X123.490 Y91.299 E1.01327 ; fill
G1 X128.255 Y96.064 E1.04239 ; fill
G1 X130.026 Y100.900 F3600.000 ; move to first fill point
G1 X122.668 Y93.543 E1.08735 F900.000 ; fill
G1 X121.847 Y95.786 E1.09767 ; fill
G1 X130.618 Y104.557 E1.15127 ; fill
G1 F1800.000 E0.15127 ; retract
G1 Z3.000 F3600.000 ; lift plate during travel
G92 E0 ; reset extrusion distance
G1 X120.204 Y100.273 F3600.000 ; move to first fill point
G1 Z2.000 F3600.000 ; restore layer Z
G1 E1.00000 F1800.000 ; compensate retraction
G1 X138.414 Y118.484 E1.11128 F900.000 ; fill
G1 X140.238 Y117.242 E1.12081 ; fill
G1 X121.025 Y98.030 E1.23821 ; fill
G1 X119.382 Y102.517 E1.25885 ; fill
G1 X135.476 Y118.610 E1.35719 ; fill
G1 X131.267 Y117.467 E1.37603 ; fill
G1 X119.134 Y105.334 E1.45017 ; fill
G1 X117.704 Y106.969 E1.45956 ; fill
G1 X127.059 Y116.324 E1.51673 ; fill
G1 X123.769 Y116.099 E1.53098 ; fill
G1 X116.273 Y108.603 E1.57678 ; fill
G1 X114.843 Y110.238 E1.58617 ; fill
G1 X121.359 Y116.754 E1.62598 ; fill
G1 X118.948 Y117.409 E1.63677 ; fill
G1 X113.412 Y111.873 E1.67060 ; fill
G1 X111.982 Y113.507 E1.67999 ; fill
G1 X116.538 Y118.063 E1.70783 ; fill
G1 X114.128 Y118.718 E1.71862 ; fill
G1 X110.551 Y115.142 E1.74047 ; fill
G1 X109.121 Y116.777 E1.74986 ; fill
G1 X109.211 Y116.867 E1.75041 ; fill
G1 F1800.000 E0.75041 ; retract
G1 Z3.000 F3600.000 ; lift plate during travel
G92 E0 ; reset extrusion distance
G1 X143.060 Y117.071 F3600.000 ; move to first perimeter point
G1 Z2.000 F3600.000 ; restore layer Z
G1 E1.00000 F1800.000 ; compensate retraction
G1 X137.708 Y120.717 E1.02692 F900.000 ; perimeter
G1 X125.000 Y117.265 E1.08167 ; perimeter
G1 X112.292 Y120.717 E1.13642 ; perimeter
G1 X106.940 Y117.071 E1.16334 ; perimeter
G1 X117.929 Y104.512 E1.23273 ; perimeter
G1 X117.814 Y102.590 E1.24073 ; perimeter
G1 X122.525 Y89.724 E1.29770 ; perimeter
G1 X124.614 Y89.731 E1.30638 ; perimeter
G1 X125.000 Y89.531 E1.30819 ; perimeter
G1 X125.386 Y89.731 E1.31000 ; perimeter
G1 X127.475 Y89.724 E1.31868 ; perimeter
G1 X132.186 Y102.590 E1.37565 ; perimeter
G1 X132.071 Y104.512 E1.38365 ; perimeter
G1 X142.863 Y116.845 E1.45179 ; perimeter
G1 F1800.000 E0.45179 ; retract
G1 Z3.000 F3600.000 ; lift plate during travel
G92 E0 ; reset extrusion distance
G1 X105.496 Y114.638 F3600.000 ; move to first perimeter point
G1 Z2.000 F3600.000 ; restore layer Z
G1 E1.00000 F1800.000 ; compensate retraction
G1 X104.565 Y115.454 E1.00515 F900.000 ; perimeter
G1 X101.325 Y113.247 E1.02144 ; perimeter
G1 X101.220 Y112.293 E1.02543 ; perimeter
G1 X100.365 Y109.525 E1.03748 ; perimeter
G1 X101.724 Y108.753 E1.04397 ; perimeter
G1 X102.576 Y110.076 E1.05052 ; perimeter
G1 X103.637 Y110.932 E1.05619 ; perimeter
G1 X105.362 Y114.370 E1.07218 ; perimeter
G1 F1800.000 E0.07218 ; retract
G1 Z3.000 F3600.000 ; lift plate during travel
G92 E0 ; reset extrusion distance
G1 X144.504 Y114.638 F3600.000 ; move to first perimeter point
G1 Z2.000 F3600.000 ; restore layer Z
G1 E1.00000 F1800.000 ; compensate retraction
G1 X146.363 Y110.932 E1.01724 F900.000 ; perimeter
G1 X147.424 Y110.076 E1.02291 ; perimeter
G1 X148.276 Y108.753 E1.02945 ; perimeter
G1 X149.635 Y109.525 E1.03595 ; perimeter
G1 X148.780 Y112.293 E1.04799 ; perimeter
G1 X148.675 Y113.247 E1.05198 ; perimeter
G1 X145.435 Y115.454 E1.06828 ; perimeter
G1 X144.729 Y114.836 E1.07218 ; perimeter
G1 X142.748 Y113.677 F3600.000 ; move to first perimeter point
G1 X144.769 Y109.649 E1.09092 F900.000 ; perimeter
G1 X145.917 Y108.722 E1.09705 ; perimeter
G1 X147.620 Y106.080 E1.11012 ; perimeter
G1 X148.920 Y106.818 E1.11633 ; perimeter
G1 X149.851 Y106.316 E1.12073 ; perimeter
G1 X150.029 Y107.072 E1.12396 ; perimeter
G1 X152.121 Y108.253 E1.13395 ; perimeter
G1 X150.747 Y112.701 E1.15331 ; perimeter
G1 X150.562 Y114.381 E1.16033 ; perimeter
G1 X138.080 Y122.890 E1.22314 ; perimeter
G1 X125.000 Y119.337 E1.27949 ; perimeter
G1 X111.920 Y122.890 E1.33584 ; perimeter
G1 X99.438 Y114.381 E1.39865 ; perimeter
G1 X99.253 Y112.701 E1.40567 ; perimeter
G1 X97.879 Y108.253 E1.42503 ; perimeter
G1 X99.971 Y107.072 E1.43502 ; perimeter
G1 X100.149 Y106.316 E1.43825 ; perimeter
G1 X101.080 Y106.818 E1.44265 ; perimeter
G1 X102.380 Y106.080 E1.44886 ; perimeter
G1 X104.083 Y108.722 E1.46193 ; perimeter
G1 X105.231 Y109.649 E1.46806 ; perimeter
G1 X107.252 Y113.677 E1.48680 ; perimeter
G1 X115.884 Y103.813 E1.54130 ; perimeter
G1 X115.793 Y102.294 E1.54763 ; perimeter
G1 X121.129 Y87.719 E1.61216 ; perimeter
G1 X124.130 Y87.730 E1.62463 ; perimeter
G1 X125.000 Y87.279 E1.62871 ; perimeter
G1 X125.870 Y87.730 E1.63278 ; perimeter
G1 X128.871 Y87.719 E1.64526 ; perimeter
G1 X134.207 Y102.294 E1.70979 ; perimeter
G1 X134.116 Y103.813 E1.71611 ; perimeter
G1 X142.551 Y113.452 E1.76936 ; perimeter
G1 X142.294 Y110.122 F3600.000 ; move to first perimeter point
G1 X143.176 Y108.365 E1.77753 F600.000 ; perimeter
G1 X144.410 Y107.368 E1.78413 ; perimeter
G1 X146.964 Y103.407 E1.80373 ; perimeter
G1 X148.945 Y104.532 E1.81320 ; perimeter
G1 X151.202 Y103.315 E1.82386 ; perimeter
G1 X151.776 Y105.762 E1.83431 ; perimeter
G1 X153.102 Y106.510 E1.84064 ; perimeter
G1 X154.963 Y105.829 E1.84888 ; perimeter
G1 X152.714 Y113.110 E1.88056 ; perimeter
G1 X152.449 Y115.516 E1.89062 ; perimeter
G1 X139.140 Y124.589 E1.95759 ; perimeter
G1 X138.209 Y124.998 E1.96182 ; perimeter
G1 X125.000 Y121.410 E2.01873 ; perimeter
G1 X111.791 Y124.998 E2.07563 ; perimeter
G1 X110.860 Y124.589 E2.07986 ; perimeter
G1 X97.551 Y115.516 E2.14683 ; perimeter
G1 X97.286 Y113.110 E2.15689 ; perimeter
G1 X95.037 Y105.829 E2.18857 ; perimeter
G1 X96.898 Y106.510 E2.19681 ; perimeter
G1 X98.224 Y105.762 E2.20314 ; perimeter
G1 X98.798 Y103.315 E2.21359 ; perimeter
G1 X101.055 Y104.532 E2.22425 ; perimeter
G1 X103.036 Y103.407 E2.23372 ; perimeter
G1 X105.590 Y107.368 E2.25332 ; perimeter
G1 X106.824 Y108.365 E2.25992 ; perimeter
G1 X107.706 Y110.122 E2.26809 ; perimeter
G1 X113.838 Y103.113 E2.30681 ; perimeter
G1 X113.771 Y101.997 E2.31145 ; perimeter
G1 X119.733 Y85.714 E2.38355 ; perimeter
G1 X123.646 Y85.728 E2.39982 ; perimeter
G1 X125.000 Y85.026 E2.40616 ; perimeter
G1 X126.354 Y85.728 E2.41250 ; perimeter
G1 X130.267 Y85.714 E2.42876 ; perimeter
G1 X136.229 Y101.997 E2.50086 ; perimeter
G1 X136.162 Y103.113 E2.50551 ; perimeter
G1 X142.097 Y109.896 E2.54298 ; perimeter
G1 X143.923 Y111.222 F3600.000 ; move inwards before travel
G1 F1800.000 E1.54298 ; retract
G1 Z3.000 F3600.000 ; lift plate during travel
G92 E0 ; reset extrusion distance
G1 X142.660 Y86.400 F3600.000 ; move to first fill point
G1 Z2.000 F3600.000 ; restore layer Z
G1 E1.00000 F1800.000 ; compensate retraction
G1 X140.158 Y83.898 E1.01529 F900.000 ; fill
G1 X141.038 Y81.656 E1.02570 ; fill
G1 X141.005 Y81.622 E1.02590 ; fill
G1 X139.090 Y82.597 F3600.000 ; move to first perimeter point
G1 X139.772 Y80.717 E1.03421 F900.000 ; perimeter
G1 X142.141 Y80.441 E1.04413 ; perimeter
G1 X142.548 Y81.577 E1.04914 ; perimeter
G1 X143.567 Y82.238 E1.05419 ; perimeter
G1 X145.709 Y89.838 E1.08702 ; perimeter
G1 X144.641 Y90.462 E1.09216 ; perimeter
G1 X137.899 Y83.707 E1.13184 ; perimeter
G1 X137.947 Y81.723 E1.14009 ; perimeter
G1 X138.852 Y82.415 E1.14483 ; perimeter
G1 X138.140 Y79.352 F3600.000 ; move to first perimeter point
G1 X138.995 Y76.994 E1.15526 F600.000 ; perimeter
G1 X139.804 Y78.700 E1.16311 ; perimeter
G1 X141.767 Y78.471 E1.17133 ; perimeter
G1 X143.246 Y77.595 E1.17848 ; perimeter
G1 X144.203 Y80.266 E1.19027 ; perimeter
G1 X145.284 Y80.967 E1.19563 ; perimeter
G1 X148.285 Y91.609 E1.24160 ; perimeter
G1 X144.638 Y93.338 E1.25838 ; perimeter
G1 X143.258 Y91.908 E1.26664 ; perimeter
G1 X135.563 Y84.197 E1.31193 ; perimeter
G1 X135.916 Y82.979 E1.31721 ; perimeter
G1 X136.042 Y77.749 E1.33896 ; perimeter
G1 X137.901 Y79.170 E1.34869 ; perimeter
G1 X139.941 Y80.221 F3600.000 ; move inwards before travel
G1 F1800.000 E0.34869 ; retract
G1 Z3.000 F3600.000 ; lift plate during travel
G92 E0 ; reset extrusion distance
G1 X108.995 Y81.622 F3600.000 ; move to first fill point
G1 Z2.000 F3600.000 ; restore layer Z
G1 E1.00000 F1800.000 ; compensate retraction
G1 X109.028 Y81.656 E1.00020 F900.000 ; fill
G1 X107.579 Y83.508 E1.01037 ; fill
G1 X108.905 Y84.835 E1.01847 ; fill
G1 X106.925 Y86.157 E1.02876 ; fill
G1 X106.853 Y86.085 E1.02920 ; fill
G1 X110.910 Y82.597 F3600.000 ; move to first perimeter point
G1 X112.053 Y81.723 E1.03518 F900.000 ; perimeter
G1 X112.101 Y83.707 E1.04343 ; perimeter
G1 X105.359 Y90.462 E1.08311 ; perimeter
G1 X104.291 Y89.838 E1.08826 ; perimeter
G1 X106.433 Y82.238 E1.12108 ; perimeter
G1 X107.452 Y81.577 E1.12614 ; perimeter
G1 X107.859 Y80.441 E1.13115 ; perimeter
G1 X110.228 Y80.717 E1.14107 ; perimeter
G1 X110.807 Y82.315 E1.14813 ; perimeter
G1 X111.860 Y79.352 F3600.000 ; move to first perimeter point
G1 X113.958 Y77.749 E1.15911 F600.000 ; perimeter
G1 X114.084 Y82.979 E1.18086 ; perimeter
G1 X114.437 Y84.197 E1.18614 ; perimeter
G1 X106.742 Y91.908 E1.23142 ; perimeter
G1 X105.362 Y93.338 E1.23969 ; perimeter
G1 X101.715 Y91.609 E1.25647 ; perimeter
G1 X104.716 Y80.967 E1.30244 ; perimeter
G1 X105.797 Y80.266 E1.30779 ; perimeter
G1 X106.754 Y77.595 E1.31959 ; perimeter
G1 X108.233 Y78.471 E1.32674 ; perimeter
G1 X110.196 Y78.700 E1.33496 ; perimeter
G1 X111.005 Y76.994 E1.34281 ; perimeter
G1 X111.758 Y79.070 E1.35199 ; perimeter
G1 X112.908 Y81.056 F3600.000 ; move inwards before travel
M204 S1500 ; adjust acceleration
G1 F1800.000 E0.35199 ; retract
G1 Z4.000 F3600.000 ; move to next layer (1) and lift
G92 E0 ; reset extrusion distance
G1 X128.131 Y93.169 F3600.000 ; move to first fill point
G1 Z3.000 F3600.000 ; restore layer Z
G1 E1.00000 F1800.000 ; compensate retraction
M204 S1500 ; adjust acceleration
G1 X118.456 Y102.844 E1.04468 F1800.000 ; fill
M204 S1500 ; adjust acceleration
G1 F1800.000 E0.04468 ; retract
G1 Z4.000 F3600.000 ; lift plate during travel
G92 E0 ; reset extrusion distance
G1 X112.785 Y119.623 F3600.000 ; move to first fill point
G1 Z3.000 F3600.000 ; restore layer Z
G1 E1.00000 F1800.000 ; compensate retraction
M204 S1500 ; adjust acceleration
G1 X131.108 Y101.300 E1.08461 F1800.000 ; fill
G1 X134.143 Y109.372 E1.11277 ; fill
G1 X126.102 Y117.413 E1.14990 ; fill
G1 X134.837 Y119.786 E1.17946 ; fill
G1 X139.326 Y115.296 E1.20019 ; fill
M204 S1500 ; adjust acceleration
G1 F1800.000 E0.20019 ; retract
G1 Z4.000 F3600.000 ; lift plate during travel
G92 E0 ; reset extrusion distance
G1 X106.575 Y117.418 F3600.000 ; move to first perimeter point
G1 Z3.000 F3600.000 ; restore layer Z
G1 E1.00000 F1800.000 ; compensate retraction
M204 S1500 ; adjust acceleration
G1 X116.931 Y105.584 E1.03269 F1800.000 ; perimeter
G1 X116.733 Y102.290 E1.03955 ; perimeter
