; generated by Slic3r 1.1.7 on 2014-11-27 at 12:23:34

; perimeters extrusion width = 2.00mm
; infill extrusion width = 3.36mm
; solid infill extrusion width = 3.36mm
; top infill extrusion width = 3.36mm

G21 ; set units to millimeters
G28 ; home all axes
M117 Printing...
G90 ; use absolute coordinates
G92 E0 ; reset extrusion distance
M82 ; use absolute distances for extrusion
M204 S500 ; adjust acceleration
G1 Z2.000 F3600.000 ; move to next layer (0)
G1 X150 Y5 F13000
G1 F1800.000 E-1.00000 ; retract
G1 Z3.000 F3600.000 ; lift plate during travel
G92 E0 ; reset extrusion distance
G1 X57.161 Y70.506 F3600.000 ; move to first skirt point
G1 Z2.000 F3600.000 ; restore layer Z
G1 E1.00000 F1800.000 ; compensate retraction
G1 X61.030 Y68.399 E1.01832 F900.000 ; skirt
G1 X98.519 Y56.219 E1.18220 ; skirt
G1 X101.558 Y55.650 E1.19505 ; skirt
G1 X105.930 Y56.218 E1.21338 ; skirt
G1 X106.492 Y56.400 E1.21584 F900.000 ; skirt
G1 X109.286 Y57.725 E1.22869 ; skirt
G1 X112.496 Y60.760 E1.24706 ; skirt
G1 X135.666 Y92.650 E1.41094 ; skirt
G1 X137.147 Y95.364 E1.42380 ; skirt
G1 X137.958 Y99.703 E1.44215 ; skirt
G1 X137.958 Y100.297 E1.44462 ; skirt
G1 X137.560 Y103.363 E1.45747 ; skirt
G1 X135.666 Y107.350 E1.47582 ; skirt
G1 X112.496 Y139.240 E1.63970 ; skirt
G1 X110.372 Y141.486 E1.65256 ; skirt
G1 X106.492 Y143.600 E1.67093 ; skirt
G1 X105.931 Y143.782 E1.67338 ; skirt
G1 X102.891 Y144.350 E1.68624 ; skirt
G1 X98.519 Y143.781 E1.70457 ; skirt
G1 X61.030 Y131.601 E1.86845 ; skirt
G1 X58.237 Y130.274 E1.88131 ; skirt
G1 X55.035 Y127.249 E1.89962 ; skirt
G1 X54.687 Y126.770 E1.90208 ; skirt
G1 X53.204 Y124.056 E1.91494 ; skirt
G1 X52.389 Y119.709 E1.93333 ; skirt
G1 X52.389 Y80.291 E2.09721 ; skirt
G1 X52.788 Y77.225 E2.11006 ; skirt
G1 X54.686 Y73.230 E2.12845 ; skirt
G1 X55.035 Y72.751 E2.13091 ; skirt
G1 X56.955 Y70.724 E2.14252 ; skirt
G1 X58.400 Y72.127 F3600.000 ; move to first skirt point
G1 X58.617 Y71.904 E2.14382 F900.000 ; skirt
G1 X61.648 Y70.301 E2.15807 ; skirt
G1 X99.137 Y58.121 E2.32195 ; skirt
G1 X101.916 Y57.637 E2.33368 ; skirt
G1 X105.313 Y58.120 E2.34794 ; skirt
G1 X105.875 Y58.302 E2.35040 F900.000 ; skirt
G1 X108.409 Y59.543 E2.36213 ; skirt
G1 X110.878 Y61.936 E2.37643 ; skirt
G1 X134.048 Y93.825 E2.54031 ; skirt
G1 X135.368 Y96.319 E2.55204 ; skirt
G1 X135.958 Y99.703 E2.56632 ; skirt
G1 X135.958 Y100.297 E2.56879 ; skirt
G1 X135.560 Y103.090 E2.58052 ; skirt
G1 X134.048 Y106.175 E2.59480 ; skirt
G1 X110.878 Y138.064 E2.75868 ; skirt
G1 X108.915 Y140.090 E2.77041 ; skirt
G1 X105.875 Y141.698 E2.78471 ; skirt
G1 X105.313 Y141.880 E2.78716 ; skirt
G1 X102.534 Y142.364 E2.79889 ; skirt
G1 X99.137 Y141.879 E2.81316 ; skirt
G1 X61.648 Y129.699 E2.97704 ; skirt
G1 X59.114 Y128.457 E2.98877 ; skirt
G1 X56.652 Y126.072 E3.00302 ; skirt
G1 X56.304 Y125.593 E3.00548 ; skirt
G1 X54.982 Y123.100 E3.01721 ; skirt
G1 X54.389 Y119.709 E3.03153 ; skirt
G1 X54.389 Y80.291 E3.19541 ; skirt
G1 X54.787 Y77.498 E3.20714 ; skirt
G1 X56.304 Y74.407 E3.22145 ; skirt
G1 X56.652 Y73.928 E3.22391 ; skirt
G1 X58.191 Y72.343 E3.23310 ; skirt
G1 X59.611 Y73.768 F3600.000 ; move to first skirt point
G1 X60.056 Y73.325 E3.23571 F900.000 ; skirt
G1 X62.266 Y72.203 E3.24601 ; skirt
G1 X99.755 Y60.023 E3.40989 ; skirt
G1 X102.246 Y59.632 E3.42038 ; skirt
G1 X104.696 Y60.022 E3.43069 ; skirt
G1 X105.257 Y60.205 E3.43315 F900.000 ; skirt
G1 X107.504 Y61.351 E3.44363 ; skirt
G1 X109.260 Y63.112 E3.45397 ; skirt
G1 X132.430 Y95.001 E3.61785 ; skirt
G1 X133.573 Y97.249 E3.62834 ; skirt
G1 X133.958 Y99.703 E3.63867 ; skirt
G1 X133.958 Y100.297 E3.64113 ; skirt
G1 X133.561 Y102.787 E3.65162 ; skirt
G1 X132.430 Y104.999 E3.66195 ; skirt
G1 X109.260 Y136.888 E3.82583 ; skirt
G1 X107.475 Y138.670 E3.83631 ; skirt
G1 X105.258 Y139.795 E3.84665 ; skirt
G1 X104.696 Y139.978 E3.84911 ; skirt
G1 X102.204 Y140.368 E3.85959 ; skirt
G1 X99.755 Y139.977 E3.86991 ; skirt
G1 X62.266 Y127.797 E4.03379 ; skirt
G1 X60.020 Y126.649 E4.04427 ; skirt
G1 X58.269 Y124.895 E4.05457 ; skirt
G1 X57.921 Y124.416 E4.05704 ; skirt
G1 X56.777 Y122.169 E4.06752 ; skirt
G1 X56.389 Y119.709 E4.07787 ; skirt
G1 X56.389 Y80.291 E4.24176 ; skirt
G1 X56.787 Y77.800 E4.25224 ; skirt
G1 X57.921 Y75.584 E4.26259 ; skirt
G1 X58.269 Y75.105 E4.26505 ; skirt
G1 X59.399 Y73.980 E4.27168 ; skirt
G1 X66.031 Y80.762 F3600.000 ; move to first perimeter point
G1 X81.976 Y80.132 E4.33803 F600.000 ; perimeter
G1 X85.509 Y79.955 E4.35273 ; perimeter
G1 X88.467 Y78.024 E4.36742 ; perimeter
G1 X101.739 Y69.160 E4.43377 ; perimeter
G1 X101.902 Y69.587 E4.43567 ; perimeter
G1 X102.285 Y69.337 E4.43757 F600.000 ; perimeter
G1 X107.812 Y84.308 E4.50392 ; perimeter
G1 X109.071 Y87.611 E4.51862 ; perimeter
G1 X111.823 Y89.829 E4.53332 ; perimeter
G1 X124.354 Y99.712 E4.59967 ; perimeter
G1 X123.996 Y100.000 E4.60158 ; perimeter
G1 X124.354 Y100.288 E4.60349 ; perimeter
G1 X111.823 Y110.171 E4.66984 ; perimeter
G1 X109.071 Y112.389 E4.68453 ; perimeter
G1 X107.812 Y115.692 E4.69923 ; perimeter
G1 X102.285 Y130.663 E4.76558 ; perimeter
G1 X101.902 Y130.413 E4.76748 ; perimeter
G1 X101.739 Y130.840 E4.76938 ; perimeter
G1 X88.467 Y121.976 E4.83573 ; perimeter
G1 X85.509 Y120.045 E4.85042 ; perimeter
G1 X81.976 Y119.868 E4.86513 ; perimeter
G1 X66.031 Y119.238 E4.93147 ; perimeter
G1 X66.150 Y118.796 E4.93338 ; perimeter
G1 X65.692 Y118.773 E4.93528 ; perimeter
G1 X70.021 Y103.412 E5.00163 ; perimeter
G1 X70.945 Y100.000 E5.01633 ; perimeter
G1 X70.021 Y96.588 E5.03103 ; perimeter
G1 X65.692 Y81.227 E5.09738 ; perimeter
G1 X66.150 Y81.204 E5.09928 ; perimeter
G1 X66.109 Y81.051 E5.09994 ; perimeter
G1 F1800.000 E4.09994 ; retract
G1 Z3.000 F3600.000 ; lift plate during travel
G92 E0 ; reset extrusion distance
G1 X101.531 Y71.558 F3600.000 ; move to first fill point
G1 Z2.000 F3600.000 ; restore layer Z
G1 E1.00000 F1800.000 ; compensate retraction
G1 X101.579 Y71.606 E1.00029 F900.000 ; fill
G1 X99.446 Y72.432 E1.01018 ; fill
G1 X103.311 Y76.297 E1.03379 ; fill
G1 X105.043 Y80.987 F3600.000 ; move to first fill point
G1 X97.672 Y73.617 E1.07883 F900.000 ; fill
G1 X95.898 Y74.802 E1.08805 ; fill
G1 X106.791 Y85.694 E1.15461 ; fill
G1 F1800.000 E0.15461 ; retract
G1 Z3.000 F3600.000 ; lift plate during travel
G92 E0 ; reset extrusion distance
G1 X116.300 Y95.203 F3600.000 ; move to first fill point
G1 Z2.000 F3600.000 ; restore layer Z
G1 E1.00000 F1800.000 ; compensate retraction
G1 X121.663 Y100.567 E1.03277 F900.000 ; fill
G1 X120.009 Y101.871 E1.04188 ; fill
G1 X94.124 Y75.986 E1.20005 ; fill
G1 X92.350 Y77.171 E1.20927 ; fill
G1 X118.355 Y103.176 E1.36817 ; fill
G1 X116.701 Y104.481 E1.37727 ; fill
G1 X90.576 Y78.356 E1.53691 ; fill
G1 X88.798 Y79.537 E1.54613 ; fill
G1 X115.046 Y105.785 E1.70652 ; fill
G1 X113.392 Y107.090 E1.71562 ; fill
G1 X87.008 Y80.705 E1.87685 ; fill
G1 X84.784 Y81.441 E1.88696 ; fill
G1 X111.738 Y108.395 E2.05167 ; fill
G1 X110.092 Y109.707 E2.06076 ; fill
G1 X81.966 Y81.581 E2.23263 ; fill
G1 X79.119 Y81.693 E2.24494 ; fill
G1 X108.453 Y111.027 E2.42418 ; fill
G1 X107.338 Y112.871 E2.43349 ; fill
G1 X76.273 Y81.806 E2.62332 ; fill
G1 X73.426 Y81.918 E2.63562 ; fill
G1 X106.521 Y115.013 E2.83785 ; fill
G1 X105.722 Y117.173 E2.84780 ; fill
G1 X70.580 Y82.031 E3.06254 ; fill
G1 X67.967 Y82.377 E3.07392 ; fill
G1 X104.924 Y119.334 E3.29975 ; fill
G1 X104.126 Y121.495 E3.30970 ; fill
G1 X68.506 Y85.875 E3.52736 ; fill
G1 X69.667 Y89.995 E3.54585 ; fill
G1 X103.328 Y123.656 E3.75154 ; fill
G1 X102.531 Y125.817 E3.76149 ; fill
G1 X70.828 Y94.115 E3.95521 ; fill
G1 X71.958 Y98.204 E3.97354 ; fill
G1 X101.733 Y127.978 E4.15548 ; fill
G1 X96.187 Y125.391 F3600.000 ; move to first fill point
G1 X72.093 Y101.297 E4.30270 F900.000 ; fill
G1 X71.463 Y103.626 E4.31313 ; fill
G1 X87.364 Y119.527 E4.41029 ; fill
G1 X83.366 Y118.488 E4.42814 ; fill
G1 X70.814 Y105.936 E4.50484 ; fill
G1 X70.164 Y108.244 E4.51520 ; fill
G1 X80.271 Y118.352 E4.57696 ; fill
G1 X77.191 Y118.230 E4.59028 ; fill
G1 X69.513 Y110.553 E4.63720 ; fill
G1 X68.862 Y112.861 E4.64756 ; fill
G1 X74.110 Y118.109 E4.67963 ; fill
G1 X71.029 Y117.987 E4.69295 ; fill
G1 X68.212 Y115.169 E4.71016 ; fill
G1 X67.912 Y117.828 E4.72173 ; fill
G1 X67.949 Y117.865 E4.72195 ; fill
M204 S1500 ; adjust acceleration
G1 Z2 F3600.000 ; move to next layer (1)
M204 S1500 ; adjust acceleration
G1 Z2.005 X65.633 Y118.318 E4.72418 F1200.000 ; perimeter
G1 Z2.100 X71.003 Y100.000 E4.76387 ; perimeter
G1 Z2.195 X65.633 Y81.682 E4.80355 ; perimeter
G1 Z2.200 X66.704 Y81.606 E4.80578 ; perimeter
G1 Z2.205 X66.446 Y80.565 E4.80801 ; perimeter
G1 Z2.300 X85.527 Y80.011 E4.84769 ; perimeter
G1 Z2.395 X101.288 Y69.244 E4.88737 ; perimeter
G1 Z2.400 X101.690 Y70.238 E4.88960 ; perimeter
M204 S1500 ; adjust acceleration
M204 S1500 ; adjust acceleration
G1 Z2.405 X102.600 Y69.671 E4.89182 F1200.000 ; perimeter
G1 Z2.500 X109.023 Y87.646 E4.93150 ; perimeter
G1 Z2.595 X124.134 Y99.309 E4.97118 ; perimeter
G1 Z2.600 X123.313 Y100.000 E4.97342 ; perimeter
G1 Z2.605 X124.134 Y100.691 E4.97565 ; perimeter
G1 Z2.700 X109.023 Y112.354 E5.01533 ; perimeter
G1 Z2.795 X102.600 Y130.329 E5.05501 ; perimeter
G1 Z2.800 X101.690 Y129.762 E5.05724 ; perimeter
G1 Z2.805 X101.288 Y130.756 E5.05947 ; perimeter
G1 Z2.900 X85.527 Y119.989 E5.09915 ; perimeter
G1 Z2.995 X66.446 Y119.435 E5.13883 ; perimeter
G1 Z3.000 X66.704 Y118.394 E5.14106 ; perimeter
M204 S1500 ; adjust acceleration
G1 Z3 F3600.000 ; move to next layer (2)
M204 S1500 ; adjust acceleration
G1 Z3.002 X67.102 Y118.104 E5.14184 F1200.000 ; perimeter
G1 Z3.009 X65.577 Y117.996 E5.14502 ; perimeter
G1 Z3.095 X70.674 Y101.262 E5.18138 ; perimeter
G1 Z3.102 X71.044 Y100.000 E5.18412 ; perimeter
G1 Z3.108 X70.674 Y98.738 E5.18685 ; perimeter
G1 Z3.194 X65.577 Y82.004 E5.22321 ; perimeter
G1 Z3.202 X67.102 Y81.896 E5.22639 ; perimeter
G1 Z3.209 X66.734 Y80.412 E5.22957 ; perimeter
G1 Z3.295 X84.222 Y80.088 E5.26593 ; perimeter
G1 Z3.302 X85.539 Y80.050 E5.26867 ; perimeter
G1 Z3.308 X86.625 Y79.308 E5.27140 ; perimeter
G1 Z3.394 X100.964 Y69.291 E5.30776 ; perimeter
G1 Z3.402 X101.538 Y70.706 E5.31094 ; perimeter
M204 S1500 ; adjust acceleration
M204 S1500 ; adjust acceleration
G1 Z3.409 X102.834 Y69.898 E5.31411 F1200.000 ; perimeter
G1 Z3.495 X108.548 Y86.431 E5.35047 ; perimeter
G1 Z3.502 X108.990 Y87.669 E5.35321 ; perimeter
G1 Z3.508 X110.032 Y88.473 E5.35594 ; perimeter
G1 Z3.594 X123.991 Y99.016 E5.39231 ; perimeter
G1 Z3.602 X122.820 Y100.000 E5.39549 ; perimeter
G1 Z3.609 X123.991 Y100.984 E5.39866 ; perimeter
G1 Z3.695 X110.032 Y111.527 E5.43503 ; perimeter
G1 Z3.702 X108.990 Y112.331 E5.43776 ; perimeter
G1 Z3.708 X108.548 Y113.569 E5.44050 ; perimeter
G1 Z3.794 X102.834 Y130.102 E5.47686 ; perimeter
G1 Z3.802 X101.538 Y129.294 E5.48003 ; perimeter
G1 Z3.809 X100.964 Y130.709 E5.48321 ; perimeter
G1 Z3.895 X86.625 Y120.692 E5.51957 ; perimeter
G1 Z3.902 X85.539 Y119.950 E5.52230 ; perimeter
G1 Z3.908 X84.222 Y119.912 E5.52504 ; perimeter
G1 Z3.994 X66.734 Y119.588 E5.56140 ; perimeter
G1 Z4.000 X67.012 Y118.470 E5.56380 ; perimeter
M204 S1500 ; adjust acceleration
G1 Z4 F3600.000 ; move to next layer (3)
M204 S1500 ; adjust acceleration
G1 Z4.003 X67.458 Y117.846 E5.56527 F1200.000 ; perimeter
G1 Z4.013 X65.540 Y117.689 E5.56927 ; perimeter
G1 Z4.081 X69.761 Y104.332 E5.59839 ; perimeter
G1 Z4.103 X71.081 Y100.000 E5.60781 ; perimeter
G1 Z4.126 X69.761 Y95.668 E5.61722 ; perimeter
G1 Z4.194 X65.540 Y82.311 E5.64634 ; perimeter
G1 Z4.203 X67.458 Y82.154 E5.65034 ; perimeter
G1 Z4.213 X67.014 Y80.281 E5.65435 ; perimeter
G1 Z4.281 X81.021 Y80.169 E5.68346 ; perimeter
G1 Z4.303 X85.550 Y80.085 E5.69288 ; perimeter
G1 Z4.326 X89.263 Y77.491 E5.70229 ; perimeter
G1 Z4.394 X100.661 Y69.350 E5.73141 ; perimeter
G1 Z4.403 X101.402 Y71.125 E5.73541 ; perimeter
M204 S1500 ; adjust acceleration
M204 S1500 ; adjust acceleration
G1 Z4.413 X103.045 Y70.124 E5.73941 F1200.000 ; perimeter
G1 Z4.481 X107.482 Y83.411 E5.76853 ; perimeter
G1 Z4.503 X108.961 Y87.691 E5.77794 ; perimeter
G1 Z4.526 X112.574 Y90.420 E5.78736 ; perimeter
G1 Z4.594 X123.841 Y98.745 E5.81648 ; perimeter
G1 Z4.603 X122.380 Y100.000 E5.82048 ; perimeter
G1 Z4.613 X123.841 Y101.255 E5.82448 ; perimeter
G1 Z4.681 X112.574 Y109.580 E5.85360 ; perimeter
G1 Z4.703 X108.961 Y112.309 E5.86301 ; perimeter
G1 Z4.726 X107.482 Y116.589 E5.87243 ; perimeter
G1 Z4.794 X103.045 Y129.876 E5.90155 ; perimeter
G1 Z4.803 X101.402 Y128.875 E5.90555 ; perimeter
G1 Z4.813 X100.661 Y130.650 E5.90955 ; perimeter
G1 Z4.881 X89.263 Y122.509 E5.93866 ; perimeter
G1 Z4.903 X85.550 Y119.915 E5.94808 ; perimeter
G1 Z4.926 X81.021 Y119.831 E5.95749 ; perimeter
G1 Z4.994 X67.014 Y119.719 E5.98661 ; perimeter
G1 Z5.000 X67.294 Y118.537 E5.98914 ; perimeter
M204 S1500 ; adjust acceleration
G1 Z5 F3600.000 ; move to next layer (4)
M204 S1500 ; adjust acceleration
G1 Z5.005 X67.804 Y117.595 E5.99128 F1200.000 ; perimeter
G1 Z5.016 X65.505 Y117.383 E5.99608 ; perimeter
G1 Z5.068 X68.792 Y107.350 E6.01802 ; perimeter
G1 Z5.105 X71.115 Y100.000 E6.03405 ; perimeter
G1 Z5.142 X68.792 Y92.650 E6.05007 ; perimeter
G1 Z5.194 X65.505 Y82.617 E6.07202 ; perimeter
G1 Z5.205 X67.804 Y82.405 E6.07682 ; perimeter
G1 Z5.216 X67.295 Y80.154 E6.08162 ; perimeter
G1 Z5.268 X77.852 Y80.179 E6.10356 ; perimeter
G1 Z5.305 X85.561 Y80.117 E6.11959 ; perimeter
G1 Z5.342 X91.833 Y75.638 E6.13561 ; perimeter
G1 Z5.394 X100.359 Y69.411 E6.15756 ; perimeter
G1 Z5.405 X101.270 Y71.531 E6.16235 ; perimeter
M204 S1500 ; adjust acceleration
M204 S1500 ; adjust acceleration
G1 Z5.416 X103.253 Y70.351 E6.16715 F1200.000 ; perimeter
G1 Z5.468 X106.492 Y80.401 E6.18910 ; perimeter
G1 Z5.505 X108.933 Y87.711 E6.20512 ; perimeter
G1 Z5.542 X115.133 Y92.292 E6.22114 ; perimeter
G1 Z5.594 X123.689 Y98.477 E6.24309 ; perimeter
G1 Z5.605 X121.953 Y100.000 E6.24789 ; perimeter
G1 Z5.616 X123.689 Y101.523 E6.25269 ; perimeter
G1 Z5.668 X115.133 Y107.708 E6.27463 ; perimeter
G1 Z5.705 X108.933 Y112.289 E6.29066 ; perimeter
G1 Z5.742 X106.492 Y119.599 E6.30668 ; perimeter
G1 Z5.794 X103.253 Y129.649 E6.32863 ; perimeter
G1 Z5.805 X101.270 Y128.469 E6.33342 ; perimeter
G1 Z5.816 X100.359 Y130.589 E6.33822 ; perimeter
G1 Z5.868 X91.833 Y124.362 E6.36017 ; perimeter
G1 Z5.905 X85.561 Y119.883 E6.37619 ; perimeter
G1 Z5.942 X77.852 Y119.821 E6.39221 ; perimeter
G1 Z5.994 X67.295 Y119.846 E6.41416 ; perimeter
G1 Z6.000 X67.576 Y118.601 E6.41681 ; perimeter
M204 S1500 ; adjust acceleration
G1 Z6 F3600.000 ; move to next layer (5)
M204 S1500 ; adjust acceleration
G1 Z6.006 X68.139 Y117.351 E6.41960 F1200.000 ; perimeter
G1 Z6.019 X65.473 Y117.078 E6.42517 ; perimeter
G1 Z6.054 X67.768 Y110.314 E6.44002 ; perimeter
G1 Z6.106 X71.147 Y100.000 E6.46258 ; perimeter
G1 Z6.159 X67.768 Y89.686 E6.48514 ; perimeter
G1 Z6.194 X65.473 Y82.922 E6.49999 ; perimeter
G1 Z6.206 X68.139 Y82.649 E6.50556 ; perimeter
G1 Z6.219 X67.576 Y80.030 E6.51113 ; perimeter
G1 Z6.254 X74.716 Y80.122 E6.52597 ; perimeter
G1 Z6.306 X85.571 Y80.148 E6.54854 ; perimeter
G1 Z6.359 X94.336 Y73.747 E6.57110 ; perimeter
G1 Z6.394 X100.059 Y69.476 E6.58594 ; perimeter
G1 Z6.406 X101.142 Y71.925 E6.59151 ; perimeter
M204 S1500 ; adjust acceleration
M204 S1500 ; adjust acceleration
G1 Z6.419 X103.458 Y70.580 E6.59707 F1200.000 ; perimeter
G1 Z6.454 X105.578 Y77.400 E6.61192 ; perimeter
G1 Z6.506 X108.907 Y87.730 E6.63448 ; perimeter
G1 Z6.559 X117.703 Y94.089 E6.65704 ; perimeter
G1 Z6.594 X123.535 Y98.212 E6.67189 ; perimeter
G1 Z6.606 X121.539 Y100.000 E6.67746 ; perimeter
G1 Z6.619 X123.535 Y101.788 E6.68303 ; perimeter
G1 Z6.654 X117.703 Y105.911 E6.69788 ; perimeter
G1 Z6.706 X108.907 Y112.270 E6.72044 ; perimeter
G1 Z6.759 X105.578 Y122.600 E6.74300 ; perimeter
G1 Z6.794 X103.458 Y129.420 E6.75785 ; perimeter
G1 Z6.806 X101.142 Y128.075 E6.76341 ; perimeter
G1 Z6.819 X100.059 Y130.524 E6.76898 ; perimeter
G1 Z6.854 X94.336 Y126.253 E6.78383 ; perimeter
G1 Z6.906 X85.571 Y119.852 E6.80639 ; perimeter
