; generated by Slic3r 1.1.7 on 2014-11-27 at 12:30:48

; perimeters extrusion width = 2.00mm
; infill extrusion width = 3.36mm
; solid infill extrusion width = 3.36mm
; top infill extrusion width = 3.36mm

G21 ; set units to millimeters
G28 ; home all axes
M117 Printing...
G90 ; use absolute coordinates
G92 E0 ; reset extrusion distance
M82 ; use absolute distances for extrusion
M204 S500 ; adjust acceleration
G1 F1800.000 E-1.00000 ; retract
G1 Z3.000 F3600.000 ; move to next layer (0) and lift
G92 E0 ; reset extrusion distance
G1 X150 Y5 F13000
G1 X64.240 Y59.112 F3600.000 ; move to first skirt point
G1 Z2.000 F3600.000 ; restore layer Z
G1 E1.00000 F1800.000 ; compensate retraction
G1 X64.793 Y58.550 E1.00328 F900.000 ; skirt
G1 X66.340 Y57.222 E1.01175 ; skirt
G1 X67.026 Y56.729 E1.01527 ; skirt
G1 X68.744 Y55.708 E1.02357 ; skirt
G1 X69.450 Y55.364 E1.02684 ; skirt
G1 X71.366 Y54.627 E1.03538 ; skirt
G1 X72.128 Y54.407 E1.03867 ; skirt
G1 X74.097 Y54.013 E1.04702 ; skirt
G1 X74.873 Y53.926 E1.05027 ; skirt
G1 X76.242 Y53.848 E1.05597 ; skirt
G1 X115.090 Y53.922 E1.21748 ; skirt
G1 X115.904 Y54.013 E1.22088 F900.000 ; skirt
G1 X117.865 Y54.405 E1.22920 ; skirt
G1 X118.640 Y54.629 E1.23255 ; skirt
G1 X120.554 Y55.366 E1.24108 ; skirt
G1 X121.307 Y55.733 E1.24456 ; skirt
G1 X122.973 Y56.728 E1.25263 ; skirt
G1 X123.654 Y57.218 E1.25612 ; skirt
G1 X125.204 Y58.547 E1.26460 ; skirt
G1 X125.762 Y59.114 E1.26791 ; skirt
G1 X127.070 Y60.697 E1.27645 ; skirt
G1 X127.528 Y61.359 E1.27980 ; skirt
G1 X128.531 Y63.114 E1.28820 ; skirt
G1 X128.876 Y63.856 E1.29160 ; skirt
G1 X129.407 Y65.219 E1.29768 ; skirt
G1 X141.759 Y104.032 E1.46702 ; skirt
G1 X141.910 Y104.883 E1.47062 ; skirt
G1 X142.092 Y106.869 E1.47891 ; skirt
G1 X142.099 Y107.658 E1.48219 ; skirt
G1 X141.948 Y109.643 E1.49046 ; skirt
G1 X141.821 Y110.425 E1.49376 ; skirt
G1 X141.334 Y112.378 E1.50213 ; skirt
G1 X141.084 Y113.111 E1.50535 ; skirt
G1 X140.281 Y114.949 E1.51369 ; skirt
G1 X139.891 Y115.669 E1.51709 ; skirt
G1 X138.819 Y117.302 E1.52521 ; skirt
G1 X138.298 Y117.968 E1.52873 ; skirt
G1 X136.963 Y119.401 E1.53687 ; skirt
G1 X135.358 Y120.764 E1.54563 ; skirt
G1 X103.375 Y143.891 E1.70972 ; skirt
G1 X102.628 Y144.302 E1.71326 ; skirt
G1 X100.833 Y145.098 E1.72143 ; skirt
G1 X100.048 Y145.372 E1.72488 ; skirt
G1 X98.157 Y145.854 E1.73299 ; skirt
G1 X97.386 Y145.984 E1.73625 ; skirt
G1 X95.387 Y146.152 E1.74458 ; skirt
G1 X94.613 Y146.152 E1.74781 ; skirt
G1 X92.616 Y145.985 E1.75613 ; skirt
G1 X91.836 Y145.853 E1.75942 ; skirt
G1 X89.950 Y145.372 E1.76751 ; skirt
G1 X89.142 Y145.089 E1.77107 ; skirt
G1 X87.370 Y144.301 E1.77914 ; skirt
G1 X86.632 Y143.895 E1.78264 ; skirt
G1 X85.385 Y143.101 E1.78878 ; skirt
G1 X53.625 Y119.937 E1.95222 ; skirt
G1 X53.037 Y119.401 E1.95553 ; skirt
G1 X51.701 Y117.967 E1.96367 ; skirt
G1 X51.182 Y117.303 E1.96718 ; skirt
G1 X50.110 Y115.670 E1.97530 ; skirt
G1 X49.721 Y114.953 E1.97869 ; skirt
G1 X48.917 Y113.114 E1.98704 ; skirt
G1 X48.665 Y112.376 E1.99028 ; skirt
G1 X48.179 Y110.425 E1.99864 ; skirt
G1 X48.053 Y109.647 E2.00191 ; skirt
G1 X47.901 Y107.654 E2.01022 ; skirt
G1 X47.908 Y106.869 E2.01349 ; skirt
G1 X48.090 Y104.878 E2.02180 ; skirt
G1 X48.240 Y104.041 E2.02533 ; skirt
G1 X48.617 Y102.537 E2.03178 ; skirt
G1 X61.122 Y63.861 E2.20078 ; skirt
G1 X61.469 Y63.115 E2.20419 ; skirt
G1 X62.473 Y61.358 E2.21261 ; skirt
G1 X62.930 Y60.697 E2.21595 ; skirt
G1 X64.049 Y59.343 E2.22325 ; skirt
G1 X65.667 Y60.514 F3600.000 ; move to first skirt point
G1 X66.219 Y59.952 E2.22653 F900.000 ; skirt
G1 X67.509 Y58.845 E2.23359 ; skirt
G1 X68.187 Y58.358 E2.23706 ; skirt
G1 X69.620 Y57.506 E2.24399 ; skirt
G1 X70.326 Y57.163 E2.24726 ; skirt
G1 X71.922 Y56.548 E2.25437 ; skirt
G1 X72.683 Y56.329 E2.25766 ; skirt
G1 X74.324 Y56.000 E2.26462 ; skirt
G1 X75.095 Y55.914 E2.26785 ; skirt
G1 X76.242 Y55.848 E2.27262 ; skirt
G1 X114.868 Y55.910 E2.43321 ; skirt
G1 X115.677 Y56.000 E2.43659 F900.000 ; skirt
G1 X117.311 Y56.327 E2.44352 ; skirt
G1 X118.083 Y56.550 E2.44686 ; skirt
G1 X119.678 Y57.165 E2.45397 ; skirt
G1 X120.423 Y57.528 E2.45742 ; skirt
G1 X121.812 Y58.357 E2.46414 ; skirt
G1 X122.487 Y58.842 E2.46759 ; skirt
G1 X123.778 Y59.949 E2.47467 ; skirt
G1 X124.335 Y60.516 E2.47797 ; skirt
G1 X125.425 Y61.835 E2.48509 ; skirt
G1 X125.881 Y62.494 E2.48842 ; skirt
G1 X126.717 Y63.957 E2.49542 ; skirt
G1 X127.059 Y64.693 E2.49880 ; skirt
G1 X127.502 Y65.830 E2.50387 ; skirt
G1 X139.792 Y104.394 E2.67215 ; skirt
G1 X139.941 Y105.230 E2.67568 ; skirt
G1 X140.092 Y106.885 E2.68259 ; skirt
G1 X140.099 Y107.672 E2.68586 ; skirt
G1 X139.973 Y109.326 E2.69275 ; skirt
G1 X139.847 Y110.105 E2.69604 ; skirt
G1 X139.441 Y111.733 E2.70301 ; skirt
G1 X139.191 Y112.466 E2.70623 ; skirt
G1 X138.522 Y113.998 E2.71318 ; skirt
G1 X138.135 Y114.712 E2.71656 ; skirt
G1 X137.242 Y116.072 E2.72332 ; skirt
G1 X136.728 Y116.729 E2.72679 ; skirt
G1 X135.616 Y117.924 E2.73357 ; skirt
G1 X134.182 Y119.146 E2.74141 ; skirt
G1 X102.406 Y142.141 E2.90448 ; skirt
G1 X101.671 Y142.546 E2.90797 ; skirt
G1 X100.173 Y143.210 E2.91478 ; skirt
G1 X99.399 Y143.480 E2.91819 ; skirt
G1 X97.823 Y143.882 E2.92495 ; skirt
G1 X97.053 Y144.012 E2.92820 ; skirt
G1 X95.387 Y144.152 E2.93515 ; skirt
G1 X94.613 Y144.152 E2.93837 ; skirt
G1 X92.949 Y144.013 E2.94531 ; skirt
G1 X92.172 Y143.881 E2.94859 ; skirt
G1 X90.600 Y143.480 E2.95533 ; skirt
G1 X89.805 Y143.202 E2.95883 ; skirt
G1 X88.328 Y142.546 E2.96555 ; skirt
G1 X87.601 Y142.145 E2.96900 ; skirt
G1 X86.561 Y141.483 E2.97413 ; skirt
G1 X54.970 Y118.457 E3.13665 ; skirt
G1 X54.384 Y117.924 E3.13995 ; skirt
G1 X53.272 Y116.729 E3.14674 ; skirt
G1 X52.759 Y116.073 E3.15020 ; skirt
G1 X51.865 Y114.712 E3.15696 ; skirt
G1 X51.480 Y114.001 E3.16033 ; skirt
G1 X50.810 Y112.469 E3.16728 ; skirt
G1 X50.558 Y111.731 E3.17052 ; skirt
G1 X50.153 Y110.105 E3.17749 ; skirt
G1 X50.028 Y109.330 E3.18075 ; skirt
G1 X49.901 Y107.669 E3.18768 ; skirt
G1 X49.908 Y106.885 E3.19094 ; skirt
G1 X50.060 Y105.226 E3.19786 ; skirt
G1 X50.207 Y104.403 E3.20134 ; skirt
G1 X50.521 Y103.148 E3.20672 ; skirt
G1 X62.939 Y64.698 E3.37470 ; skirt
G1 X63.282 Y63.958 E3.37810 ; skirt
G1 X64.120 Y62.493 E3.38511 ; skirt
G1 X64.575 Y61.835 E3.38844 ; skirt
G1 X65.476 Y60.745 E3.39432 ; skirt
G1 X67.093 Y61.916 F3600.000 ; move to first skirt point
G1 X67.646 Y61.353 E3.39759 F900.000 ; skirt
G1 X68.677 Y60.468 E3.40325 ; skirt
G1 X69.348 Y59.986 E3.40668 ; skirt
G1 X70.496 Y59.304 E3.41223 ; skirt
G1 X71.201 Y58.961 E3.41549 ; skirt
G1 X72.478 Y58.470 E3.42118 ; skirt
G1 X73.238 Y58.250 E3.42447 ; skirt
G1 X74.551 Y57.987 E3.43003 ; skirt
G1 X75.317 Y57.902 E3.43324 ; skirt
G1 X76.242 Y57.848 E3.43709 ; skirt
G1 X114.646 Y57.897 E3.59676 ; skirt
G1 X115.450 Y57.987 E3.60012 F900.000 ; skirt
G1 X116.757 Y58.248 E3.60566 ; skirt
G1 X117.526 Y58.471 E3.60899 ; skirt
G1 X118.802 Y58.963 E3.61468 ; skirt
G1 X119.540 Y59.322 E3.61809 ; skirt
G1 X120.651 Y59.986 E3.62347 ; skirt
G1 X121.319 Y60.466 E3.62689 ; skirt
G1 X122.352 Y61.351 E3.63255 ; skirt
G1 X122.908 Y61.917 E3.63584 ; skirt
G1 X123.780 Y62.972 E3.64154 ; skirt
G1 X124.235 Y63.630 E3.64486 ; skirt
G1 X124.904 Y64.800 E3.65046 ; skirt
G1 X125.243 Y65.531 E3.65381 ; skirt
G1 X125.598 Y66.441 E3.65788 ; skirt
G1 X137.825 Y104.756 E3.82508 ; skirt
G1 X137.971 Y105.577 E3.82855 ; skirt
G1 X138.092 Y106.902 E3.83408 ; skirt
G1 X138.099 Y107.686 E3.83734 ; skirt
G1 X137.998 Y109.009 E3.84286 ; skirt
G1 X137.872 Y109.786 E3.84613 ; skirt
G1 X137.548 Y111.088 E3.85171 ; skirt
G1 X137.298 Y111.821 E3.85493 ; skirt
G1 X136.763 Y113.046 E3.86049 ; skirt
G1 X136.379 Y113.754 E3.86384 ; skirt
G1 X135.665 Y114.843 E3.86925 ; skirt
G1 X135.158 Y115.490 E3.87267 ; skirt
G1 X134.268 Y116.446 E3.87810 ; skirt
G1 X133.007 Y117.528 E3.88501 ; skirt
G1 X101.437 Y140.391 E4.04706 ; skirt
G1 X100.713 Y140.790 E4.05050 ; skirt
G1 X99.514 Y141.322 E4.05595 ; skirt
G1 X98.749 Y141.589 E4.05932 ; skirt
G1 X97.489 Y141.910 E4.06473 ; skirt
G1 X96.720 Y142.040 E4.06797 ; skirt
G1 X95.387 Y142.152 E4.07353 ; skirt
G1 X94.613 Y142.152 E4.07675 ; skirt
G1 X93.282 Y142.040 E4.08230 ; skirt
G1 X92.507 Y141.909 E4.08557 ; skirt
G1 X91.250 Y141.589 E4.09096 ; skirt
G1 X90.467 Y141.315 E4.09441 ; skirt
G1 X89.286 Y140.790 E4.09979 ; skirt
G1 X88.570 Y140.395 E4.10318 ; skirt
G1 X87.737 Y139.865 E4.10729 ; skirt
G1 X56.315 Y116.977 E4.26891 ; skirt
G1 X55.732 Y116.446 E4.27219 ; skirt
G1 X54.842 Y115.490 E4.27762 ; skirt
G1 X54.336 Y114.843 E4.28103 ; skirt
G1 X53.621 Y113.755 E4.28645 ; skirt
G1 X53.239 Y113.049 E4.28978 ; skirt
G1 X52.703 Y111.823 E4.29535 ; skirt
G1 X52.452 Y111.087 E4.29858 ; skirt
G1 X52.128 Y109.786 E4.30415 ; skirt
G1 X52.002 Y109.012 E4.30741 ; skirt
G1 X51.901 Y107.684 E4.31295 ; skirt
G1 X51.908 Y106.902 E4.31620 ; skirt
G1 X52.029 Y105.574 E4.32175 ; skirt
G1 X52.174 Y104.764 E4.32517 ; skirt
G1 X52.426 Y103.759 E4.32947 ; skirt
G1 X64.755 Y65.536 E4.49645 ; skirt
G1 X65.096 Y64.800 E4.49982 ; skirt
G1 X65.766 Y63.629 E4.50543 ; skirt
G1 X66.220 Y62.972 E4.50875 ; skirt
G1 X66.902 Y62.147 E4.51320 ; skirt
G1 F1800.000 E3.51320 ; retract
G1 Z3.000 F3600.000 ; lift plate during travel
G92 E0 ; reset extrusion distance
G1 X124.711 Y107.124 F3600.000 ; move to first perimeter point
G1 Z2.000 F3600.000 ; restore layer Z
G1 E1.00000 F1800.000 ; compensate retraction
G1 X104.654 Y110.161 E1.08434 F900.000 ; perimeter
G1 X95.000 Y128.724 E1.17133 ; perimeter
G1 X85.346 Y110.161 E1.25832 ; perimeter
G1 X65.289 Y107.124 E1.34265 ; perimeter
G1 X80.221 Y91.539 E1.43239 ; perimeter
G1 X76.860 Y71.161 E1.51826 ; perimeter
G1 X95.001 Y80.765 E1.60359 ; perimeter
G1 X113.140 Y71.161 E1.68892 ; perimeter
G1 X109.779 Y91.539 E1.77479 ; perimeter
G1 X124.503 Y106.908 E1.86328 ; perimeter
G1 X127.047 Y106.977 F3600.000 ; move to first perimeter point
G1 X127.095 Y107.244 E1.86440 F900.000 ; perimeter
G1 X127.097 Y107.513 E1.86552 ; perimeter
G1 X127.054 Y107.780 E1.86665 ; perimeter
G1 X126.967 Y108.035 E1.86777 ; perimeter
G1 X126.838 Y108.273 E1.86889 ; perimeter
G1 X126.671 Y108.486 E1.87002 ; perimeter
G1 X126.472 Y108.667 E1.87114 ; perimeter
G1 X126.244 Y108.813 E1.87226 ; perimeter
G1 X125.996 Y108.919 E1.87338 ; perimeter
G1 X125.610 Y109.011 E1.87503 ; perimeter
G1 X105.959 Y111.986 E1.95767 ; perimeter
G1 X96.495 Y130.184 E2.04294 ; perimeter
G1 X96.283 Y130.520 E2.04459 ; perimeter
G1 X96.104 Y130.719 E2.04571 ; perimeter
G1 X95.893 Y130.887 E2.04683 ; perimeter
G1 X95.656 Y131.018 E2.04795 ; perimeter
G1 X95.401 Y131.107 E2.04908 ; perimeter
G1 X95.135 Y131.152 E2.05020 ; perimeter
G1 X94.865 Y131.152 E2.05132 ; perimeter
G1 X94.600 Y131.107 E2.05244 ; perimeter
G1 X94.344 Y131.018 E2.05356 ; perimeter
G1 X94.107 Y130.887 E2.05469 ; perimeter
G1 X93.896 Y130.719 E2.05581 ; perimeter
G1 X93.717 Y130.520 E2.05693 ; perimeter
G1 X93.505 Y130.184 E2.05858 ; perimeter
G1 X84.041 Y111.986 E2.14385 ; perimeter
G1 X64.390 Y109.011 E2.22649 ; perimeter
G1 X64.004 Y108.919 E2.22813 ; perimeter
G1 X63.755 Y108.813 E2.22926 ; perimeter
G1 X63.528 Y108.667 E2.23038 ; perimeter
G1 X63.329 Y108.486 E2.23150 ; perimeter
G1 X63.162 Y108.273 E2.23263 ; perimeter
G1 X63.033 Y108.035 E2.23375 ; perimeter
G1 X62.946 Y107.780 E2.23487 ; perimeter
G1 X62.903 Y107.513 E2.23599 ; perimeter
G1 X62.905 Y107.244 E2.23712 ; perimeter
G1 X62.953 Y106.977 E2.23824 ; perimeter
G1 X63.044 Y106.723 E2.23936 ; perimeter
G1 X63.176 Y106.487 E2.24049 ; perimeter
G1 X63.425 Y106.179 E2.24214 ; perimeter
G1 X78.085 Y90.877 E2.33024 ; perimeter
G1 X74.783 Y70.856 E2.41460 ; perimeter
G1 X74.752 Y70.455 E2.41627 ; perimeter
G1 X74.777 Y70.181 E2.41742 ; perimeter
G1 X74.849 Y69.916 E2.41856 ; perimeter
G1 X74.964 Y69.667 E2.41970 ; perimeter
G1 X75.121 Y69.441 E2.42084 ; perimeter
G1 X75.312 Y69.246 E2.42198 ; perimeter
G1 X75.536 Y69.085 E2.42313 ; perimeter
G1 X75.783 Y68.965 E2.42426 ; perimeter
G1 X76.046 Y68.889 E2.42541 ; perimeter
G1 X76.320 Y68.858 E2.42655 ; perimeter
G1 X76.593 Y68.874 E2.42769 ; perimeter
G1 X76.860 Y68.937 E2.42883 ; perimeter
G1 X77.232 Y69.095 E2.43051 ; perimeter
G1 X95.001 Y78.502 E2.51410 ; perimeter
G1 X112.767 Y69.095 E2.59768 ; perimeter
G1 X113.140 Y68.937 E2.59936 ; perimeter
G1 X113.407 Y68.874 E2.60050 ; perimeter
G1 X113.680 Y68.858 E2.60164 ; perimeter
G1 X113.954 Y68.889 E2.60278 ; perimeter
G1 X114.217 Y68.965 E2.60392 ; perimeter
G1 X114.464 Y69.085 E2.60506 ; perimeter
G1 X114.688 Y69.246 E2.60621 ; perimeter
G1 X114.879 Y69.441 E2.60734 ; perimeter
G1 X115.036 Y69.667 E2.60849 ; perimeter
G1 X115.151 Y69.916 E2.60963 ; perimeter
G1 X115.223 Y70.181 E2.61077 ; perimeter
G1 X115.248 Y70.455 E2.61191 ; perimeter
G1 X115.217 Y70.856 E2.61359 ; perimeter
G1 X111.915 Y90.877 E2.69795 ; perimeter
G1 X126.575 Y106.179 E2.78605 ; perimeter
G1 X126.824 Y106.487 E2.78770 ; perimeter
G1 X126.942 Y106.697 E2.78870 ; perimeter
G1 X128.987 Y106.462 F3600.000 ; move to first perimeter point
G1 X129.093 Y107.059 E2.79122 F600.000 ; perimeter
G1 X129.098 Y107.666 E2.79374 ; perimeter
G1 X129.001 Y108.266 E2.79627 ; perimeter
G1 X128.806 Y108.840 E2.79879 ; perimeter
G1 X128.517 Y109.373 E2.80131 ; perimeter
G1 X128.142 Y109.852 E2.80384 ; perimeter
G1 X127.694 Y110.260 E2.80636 ; perimeter
G1 X127.183 Y110.588 E2.80889 ; perimeter
G1 X126.624 Y110.825 E2.81141 ; perimeter
G1 X125.992 Y110.976 E2.81411 ; perimeter
G1 X107.264 Y113.812 E2.89286 ; perimeter
G1 X98.231 Y131.181 E2.97426 ; perimeter
G1 X97.884 Y131.730 E2.97696 ; perimeter
G1 X97.480 Y132.181 E2.97947 ; perimeter
G1 X97.005 Y132.558 E2.98200 ; perimeter
G1 X96.474 Y132.851 E2.98452 ; perimeter
G1 X95.901 Y133.051 E2.98704 ; perimeter
G1 X95.303 Y133.152 E2.98956 ; perimeter
G1 X94.697 Y133.152 E2.99208 ; perimeter
G1 X94.099 Y133.051 E2.99460 ; perimeter
G1 X93.526 Y132.851 E2.99712 ; perimeter
G1 X92.995 Y132.558 E2.99965 ; perimeter
G1 X92.520 Y132.181 E3.00217 ; perimeter
G1 X92.115 Y131.730 E3.00469 ; perimeter
G1 X91.769 Y131.181 E3.00738 ; perimeter
G1 X82.736 Y113.812 E3.08878 ; perimeter
G1 X64.007 Y110.976 E3.16753 ; perimeter
G1 X63.376 Y110.825 E3.17023 ; perimeter
G1 X62.817 Y110.588 E3.17276 ; perimeter
G1 X62.306 Y110.260 E3.17528 ; perimeter
G1 X61.858 Y109.852 E3.17780 ; perimeter
G1 X61.483 Y109.373 E3.18033 ; perimeter
G1 X61.194 Y108.839 E3.18285 ; perimeter
G1 X60.999 Y108.265 E3.18537 ; perimeter
G1 X60.902 Y107.666 E3.18790 ; perimeter
G1 X60.907 Y107.059 E3.19042 ; perimeter
G1 X61.013 Y106.462 E3.19294 ; perimeter
G1 X61.217 Y105.890 E3.19547 ; perimeter
G1 X61.515 Y105.361 E3.19799 ; perimeter
G1 X61.923 Y104.856 E3.20069 ; perimeter
G1 X75.949 Y90.216 E3.28498 ; perimeter
G1 X72.796 Y71.098 E3.36554 ; perimeter
G1 X72.744 Y70.440 E3.36828 ; perimeter
G1 X72.802 Y69.825 E3.37085 ; perimeter
G1 X72.963 Y69.229 E3.37342 ; perimeter
G1 X73.222 Y68.670 E3.37598 ; perimeter
G1 X73.573 Y68.162 E3.37855 ; perimeter
G1 X74.006 Y67.722 E3.38111 ; perimeter
G1 X74.507 Y67.361 E3.38368 ; perimeter
G1 X75.061 Y67.091 E3.38624 ; perimeter
G1 X75.654 Y66.920 E3.38881 ; perimeter
G1 X76.268 Y66.851 E3.39137 ; perimeter
G1 X76.884 Y66.888 E3.39394 ; perimeter
G1 X77.484 Y67.029 E3.39651 ; perimeter
G1 X78.092 Y67.287 E3.39925 ; perimeter
G1 X95.000 Y76.238 E3.47879 ; perimeter
G1 X111.908 Y67.287 E3.55832 ; perimeter
G1 X112.516 Y67.029 E3.56107 ; perimeter
G1 X113.116 Y66.888 E3.56364 ; perimeter
G1 X113.732 Y66.851 E3.56620 ; perimeter
G1 X114.346 Y66.920 E3.56877 ; perimeter
G1 X114.938 Y67.091 E3.57133 ; perimeter
G1 X115.493 Y67.361 E3.57390 ; perimeter
G1 X115.995 Y67.722 E3.57647 ; perimeter
G1 X116.426 Y68.162 E3.57903 ; perimeter
G1 X116.778 Y68.670 E3.58160 ; perimeter
G1 X117.037 Y69.229 E3.58416 ; perimeter
G1 X117.198 Y69.825 E3.58673 ; perimeter
G1 X117.256 Y70.440 E3.58929 ; perimeter
G1 X117.204 Y71.098 E3.59204 ; perimeter
G1 X114.051 Y90.216 E3.67260 ; perimeter
G1 X128.077 Y104.856 E3.75689 ; perimeter
G1 X128.485 Y105.361 E3.75959 ; perimeter
G1 X128.783 Y105.890 E3.76211 ; perimeter
